images_sukapura_svg/cmd/lc_distributerows.svg

<svg viewBox="0 0 24 24" xmlns="http://www.w3.org/2000/svg" xmlns:xlink="http://www.w3.org/1999/xlink"><linearGradient id="a" gradientTransform="matrix(1 0 0 -1 0 24.999934)" gradientUnits="userSpaceOnUse" x1="15" x2="15" y1=".999934" y2="8.499934"><stop offset="0" stop-color="#0040dd"/><stop offset="1" stop-color="#0a84ff"/></linearGradient><path d="m12.478516 23.999934a.49948816.49960054 0 0 1 -.394532-.203125l-2.943359-2.949219a.50007538.50018789 0 0 1 .4257812-.847656h1.4335938v-3.5c0-.277.223-.5.5-.5h1.003906.996094c.277 0 .5.223.5.5v3.5h1.394531a.49948816.49960054 0 0 1 .445313.84961l-2.957032 2.955078a.49948816.49960054 0 0 1 -.404296.195312z" fill="url(#a)" fill-rule="evenodd"/><path d="m3 5v4h18v-4z" fill="#fff"/><path d="m2 4v1 4h1 5 1 6 1 5 1v-4-1zm1 1h5 1 6 1 5v3h-5-1-6-1-5z" fill="#69696e"/><path d="m8 5v3h1v-3zm7 0v3h1v-3z" fill="#bababa"/><path d="m3 10v4h18v-4z" fill="#fff"/><path d="m2 10v4h1 5 1 6 1 5 1v-4h-1v3h-5-1-6-1-5v-3z" fill="#69696e"/><path d="m8 10v3h1v-3zm7 0v3h1v-3z" fill="#bababa"/></svg>

<?xml version="1.0" encoding="UTF-8" standalone="no"?>
<svg
   xmlns:dc="http://purl.org/dc/elements/1.1/"
   xmlns:cc="http://creativecommons.org/ns#"
   xmlns:rdf="http://www.w3.org/1999/02/22-rdf-syntax-ns#"
   xmlns:svg="http://www.w3.org/2000/svg"
   xmlns="http://www.w3.org/2000/svg"
   xmlns:xlink="http://www.w3.org/1999/xlink"
   xmlns:sodipodi="http://sodipodi.sourceforge.net/DTD/sodipodi-0.dtd"
   xmlns:inkscape="http://www.inkscape.org/namespaces/inkscape"
   viewBox="0 0 24 24"
   version="1.1"
   id="svg12"
   sodipodi:docname="lc_distributerows.svg"
   inkscape:version="0.92.3 (unknown)">
  <metadata
     id="metadata18">
    <rdf:RDF>
      <cc:Work
         rdf:about="">
        <dc:format>image/svg+xml</dc:format>
        <dc:type
           rdf:resource="http://purl.org/dc/dcmitype/StillImage" />
        <dc:title></dc:title>
      </cc:Work>
    </rdf:RDF>
  </metadata>
  <defs
     id="defs16">
    <linearGradient
       gradientTransform="translate(75,-7)"
       id="a-367"
       gradientUnits="userSpaceOnUse"
       x1="14"
       x2="13.79661"
       y1="22"
       y2="2.1355929">
      <stop
         offset="0"
         stop-color="#0040dd"
         id="stop2206" />
      <stop
         offset="1"
         stop-color="#0a84ff"
         id="stop2208" />
    </linearGradient>
    <linearGradient
       inkscape:collect="always"
       xlink:href="#a-367"
       id="linearGradient883"
       gradientUnits="userSpaceOnUse"
       x1="15"
       y1="0.99993402"
       x2="15"
       y2="8.4999342"
       gradientTransform="matrix(1,0,0,-1,0,24.999934)" />
  </defs>
  <sodipodi:namedview
     pagecolor="#ffffff"
     bordercolor="#666666"
     borderopacity="1"
     objecttolerance="10"
     gridtolerance="10"
     guidetolerance="10"
     inkscape:pageopacity="0"
     inkscape:pageshadow="2"
     inkscape:window-width="1366"
     inkscape:window-height="706"
     id="namedview14"
     showgrid="true"
     inkscape:zoom="6.9532167"
     inkscape:cx="3.492816"
     inkscape:cy="-2.2319368"
     inkscape:window-x="0"
     inkscape:window-y="0"
     inkscape:window-maximized="1"
     inkscape:current-layer="svg12">
    <inkscape:grid
       type="xygrid"
       id="grid828"
       spacingx="0.5"
       spacingy="0.5"
       empspacing="2" />
  </sodipodi:namedview>
  <path
     inkscape:connector-curvature="0"
     d="M 12.478516,23.999934 A 0.49948816,0.49960054 0 0 1 12.083984,23.796809 L 9.140625,20.84759 A 0.50007538,0.50018789 0 0 1 9.5664062,19.999934 H 11 v -3.5 c 0,-0.277 0.223,-0.5 0.5,-0.5 H 12.503906 13.5 c 0.277,0 0.5,0.223 0.5,0.5 v 3.5 h 1.394531 a 0.49948816,0.49960054 0 0 1 0.445313,0.84961 l -2.957032,2.955078 a 0.49948816,0.49960054 0 0 1 -0.404296,0.195312 z"
     id="path881"
     style="fill:url(#linearGradient883);fill-opacity:1;fill-rule:evenodd" />
  <path
     style="fill:#ffffff"
     inkscape:connector-curvature="0"
     d="M 3,5 V 9 H 21 V 5 Z"
     id="path2" />
  <path
     inkscape:connector-curvature="0"
     style="fill:#69696e;fill-opacity:1"
     d="m 2,4 v 1 4 h 1 5 1 6 1 5 1 V 5 4 Z m 1,1 h 5 1 6 1 5 V 8 H 16 15 9 8 3 Z"
     id="path4" />
  <path
     inkscape:connector-curvature="0"
     style="fill:#bababa;fill-opacity:1"
     d="M 8,5 V 8 H 9 V 5 Z m 7,0 v 3 h 1 V 5 Z"
     id="rect863" />
  <path
     inkscape:connector-curvature="0"
     style="fill:#ffffff"
     d="m 3,10 v 4 h 18 v -4 z"
     id="path8-3" />
  <path
     inkscape:connector-curvature="0"
     style="fill:#69696e;fill-opacity:1"
     d="m 2,10 v 4 h 1 5 1 6 1 5 1 v -4 h -1 v 3 H 16 15 9 8 3 v -3 z"
     id="path10"
     sodipodi:nodetypes="ccccccccccccccccccc" />
  <path
     id="path847"
     d="m 8,10 v 3 h 1 v -3 z m 7,0 v 3 h 1 v -3 z"
     style="fill:#bababa;fill-opacity:1"
     inkscape:connector-curvature="0" />
</svg>
